img/icons/navigation/mouse-left-button.svg

<svg viewBox="0 0 16 16" xmlns="http://www.w3.org/2000/svg"><path d="m13 10v-4c0-0.946-5e-4 -1.6-0.0357-2.12-0.0346-0.507-0.0993-0.802-0.193-1.03-0.304-0.735-0.888-1.32-1.62-1.62-0.225-0.0934-0.521-0.158-1.03-0.193-0.516-0.0352-1.18-0.0357-2.12-0.0357s-1.6 5.5e-4 -2.12 0.0357c-0.507 0.0346-0.802 0.0993-1.03 0.193-0.735 0.304-1.32 0.888-1.62 1.62-0.0934 0.225-0.158 0.521-0.193 1.03-0.0352 0.516-0.0357 1.17-0.0357 2.12v4c0 0.946 5.4e-4 1.6 0.0357 2.12 0.0346 0.507 0.0993 0.802 0.193 1.03 0.304 0.735 0.889 1.32 1.62 1.62 0.225 0.0933 0.521 0.158 1.03 0.193 0.516 0.0352 1.17 0.0357 2.12 0.0357s1.6-5e-4 2.12-0.0357c0.507-0.0346 0.802-0.0993 1.03-0.193 0.735-0.304 1.32-0.888 1.62-1.62 0.0934-0.225 0.158-0.521 0.193-1.03 0.0352-0.516 0.0357-1.18 0.0357-2.12zm-10.7-7.53c-0.304 0.735-0.304 1.67-0.304 3.53v4c0 1.86 0 2.8 0.304 3.53 0.406 0.98 1.18 1.76 2.16 2.16 0.735 0.304 1.67 0.304 3.53 0.304s2.8 0 3.53-0.304c0.98-0.406 1.76-1.18 2.16-2.16 0.304-0.735 0.304-1.67 0.304-3.53v-4c0-1.86 0-2.8-0.304-3.53-0.406-0.98-1.18-1.76-2.16-2.16-0.735-0.304-1.67-0.304-3.53-0.304s-2.8 0-3.53 0.304c-0.98 0.406-1.76 1.18-2.16 2.16z" clip-rule="evenodd" fill="#000" fill-rule="evenodd"/><path d="m4 4c0-1.1 0.895-2 2-2h1c0.552 0 1 0.448 1 1v4c0 0.552-0.448 1-1 1h-2c-0.552 0-1-0.448-1-1v-3z" fill="#000"/></svg>

<svg xmlns="http://www.w3.org/2000/svg" viewBox="0 0 16 16" fill="none">
  <path fill="#000" fill-rule="evenodd"
    d="M13 10V6c0-.945 0-1.604-.036-2.12-.034-.507-.099-.802-.192-1.028a3 3 0 0 0-1.624-1.623c-.225-.094-.52-.158-1.027-.193C9.605 1.001 8.946 1 8 1s-1.605 0-2.12.036c-.507.035-.803.1-1.028.193a3 3 0 0 0-1.624 1.623c-.093.226-.158.52-.192 1.028C3 4.396 3 5.055 3 6v4c0 .946 0 1.605.036 2.12.034.508.099.803.192 1.028a3 3 0 0 0 1.624 1.624c.225.093.52.158 1.027.193C6.395 15 7.054 15 8 15s1.605 0 2.12-.035c.508-.035.803-.1 1.028-.193a3 3 0 0 0 1.624-1.624c.093-.225.158-.52.192-1.027C13 11.605 13 10.946 13 10ZM2.304 2.47C2 3.205 2 4.137 2 6v4c0 1.864 0 2.796.304 3.531a4 4 0 0 0 2.165 2.165C5.204 16 6.136 16 8 16s2.796 0 3.53-.304a4 4 0 0 0 2.165-2.165c.305-.735.305-1.667.305-3.53V6c0-1.864 0-2.796-.305-3.531A4 4 0 0 0 11.531.305C10.796 0 9.864 0 8 0S5.204 0 4.47.305A4 4 0 0 0 2.303 2.47Z"
    clip-rule="evenodd" />
  <path fill="#000" d="M4 4a2 2 0 0 1 2-2h1a1 1 0 0 1 1 1v4a1 1 0 0 1-1 1H5a1 1 0 0 1-1-1V4Z" />
</svg>
